assets/images/check-and-cross.svg

<svg aria-hidden="true" style="position: absolute; width: 0; height: 0; overflow: hidden;" version="1.1" xmlns="http://www.w3.org/2000/svg" xmlns:xlink="http://www.w3.org/1999/xlink">
<defs>
<symbol id="icon-cross" viewBox="0 0 16 16">
<title>cross</title>
<path d="M15.854 12.854c-0-0-0-0-0-0l-4.854-4.854 4.854-4.854c0-0 0-0 0-0 0.052-0.052 0.090-0.113 0.114-0.178 0.066-0.178 0.028-0.386-0.114-0.529l-2.293-2.293c-0.143-0.143-0.351-0.181-0.529-0.114-0.065 0.024-0.126 0.062-0.178 0.114 0 0-0 0-0 0l-4.854 4.854-4.854-4.854c-0-0-0-0-0-0-0.052-0.052-0.113-0.090-0.178-0.114-0.178-0.066-0.386-0.029-0.529 0.114l-2.293 2.293c-0.143 0.143-0.181 0.351-0.114 0.529 0.024 0.065 0.062 0.126 0.114 0.178 0 0 0 0 0 0l4.854 4.854-4.854 4.854c-0 0-0 0-0 0-0.052 0.052-0.090 0.113-0.114 0.178-0.066 0.178-0.029 0.386 0.114 0.529l2.293 2.293c0.143 0.143 0.351 0.181 0.529 0.114 0.065-0.024 0.126-0.062 0.178-0.114 0-0 0-0 0-0l4.854-4.854 4.854 4.854c0 0 0 0 0 0 0.052 0.052 0.113 0.090 0.178 0.114 0.178 0.066 0.386 0.029 0.529-0.114l2.293-2.293c0.143-0.143 0.181-0.351 0.114-0.529-0.024-0.065-0.062-0.126-0.114-0.178z"></path>
</symbol>
<symbol id="icon-check" viewBox="0 0 16 16">
<title>checkmark</title>
<path d="M13.5 2l-7.5 7.5-3.5-3.5-2.5 2.5 6 6 10-10z"></path>
</symbol>
</defs>
</svg>

<svg aria-hidden="true" style="position:absolute;width:0;height:0" xmlns="http://www.w3.org/2000/svg" overflow="hidden"><defs><symbol id="icon-cross" viewBox="0 0 16 16"><path d="M15.854 12.854L11 8l4.854-4.854a.503.503 0 0 0 0-.707L13.561.146a.499.499 0 0 0-.707 0L8 5 3.146.146a.5.5 0 0 0-.707 0L.146 2.439a.499.499 0 0 0 0 .707L5 8 .146 12.854a.5.5 0 0 0 0 .707l2.293 2.293a.499.499 0 0 0 .707 0L8 11l4.854 4.854a.5.5 0 0 0 .707 0l2.293-2.293a.499.499 0 0 0 0-.707z"/></symbol><symbol id="icon-check" viewBox="0 0 16 16"><path d="M13.5 2L6 9.5 2.5 6 0 8.5l6 6 10-10z"/></symbol></defs></svg>
